X: 1
T: Orphan, The
M: 6/8
L: 1/8
R: jig
K: Emin
~E3 EDB,|GFG A3|B3 ABA|GEF EDB,|
~A,3 EDB,|GFG AGA|B3 ABA|1 GED EGF:|2 GED E3|
efe dBA|GAB d3|efe dBA|BEF EDB,|
~A,3 EDB,|GFG AGA|~B3 ABA|1 GED E3:|2 GED EGF||
